polaris-icons/icons/PackageReturnedIcon.svg

<svg xmlns="http://www.w3.org/2000/svg" viewBox="0 0 20 20"><path fill-rule="evenodd" d="M15 10.75V8H5V14.75C5 14.8881 5.11193 15 5.25 15H9.25C9.66421 15 10 15.3358 10 15.75C10 16.1642 9.66421 16.5 9.25 16.5H5.25C4.2835 16.5 3.5 15.7165 3.5 14.75V7.88657C3.5 7.31712 3.67678 6.76171 4.00593 6.29703L5.31463 4.44946C5.73645 3.85394 6.4209 3.5 7.15068 3.5H12.9472C13.6995 3.5 14.402 3.87598 14.8193 4.50192L16.0381 6.33013C16.3393 6.78186 16.5 7.31263 16.5 7.85555V10.75C16.5 11.1642 16.1642 11.5 15.75 11.5C15.3358 11.5 15 11.1642 15 10.75ZM6.53866 5.31649C6.67927 5.11798 6.90742 5 7.15068 5H9.25V6.5H5.70034L6.53866 5.31649ZM14.3486 6.5H10.75V5H12.9472C13.198 5 13.4322 5.12533 13.5713 5.33397L14.3486 6.5Z"/>
<path fill-rule="evenodd" d="M6 10C6 9.44771 6.44772 9 7 9H11C11.5523 9 12 9.44772 12 10V13C12 13.5523 11.5523 14 11 14H7C6.44771 14 6 13.5523 6 13V10ZM7.5 10.5V12.5H10.5V10.5H7.5Z"/>
<path d="M17.5 12.75C17.5 12.3358 17.1642 12 16.75 12C16.3358 12 16 12.3358 16 12.75V13.25C16 14.2165 15.2165 15 14.25 15H13.3107L13.5303 14.7803C13.8232 14.4874 13.8232 14.0126 13.5303 13.7197C13.2374 13.4268 12.7626 13.4268 12.4697 13.7197L10.9697 15.2197C10.6768 15.5126 10.6768 15.9874 10.9697 16.2803L12.4697 17.7803C12.7626 18.0732 13.2374 18.0732 13.5303 17.7803C13.8232 17.4874 13.8232 17.0126 13.5303 16.7197L13.3107 16.5H14.25C16.0449 16.5 17.5 15.0449 17.5 13.25V12.75Z"/>
</svg>

<svg xmlns="http://www.w3.org/2000/svg" viewBox="0 0 20 20"><path fill-rule="evenodd" d="M15 10.75v-2.75h-10v6.75c0 .138.112.25.25.25h4c.414 0 .75.336.75.75s-.336.75-.75.75h-4c-.966 0-1.75-.784-1.75-1.75v-6.863c0-.57.177-1.125.506-1.59l1.309-1.848c.421-.595 1.106-.949 1.836-.949h5.796c.753 0 1.455.376 1.872 1.002l1.22 1.828c.3.452.461.983.461 1.526v2.894c0 .414-.336.75-.75.75s-.75-.336-.75-.75Zm-8.461-5.434c.14-.198.368-.316.612-.316h2.099v1.5h-3.55l.839-1.184Zm7.81 1.184h-3.599v-1.5h2.197c.251 0 .485.125.624.334l.778 1.166Z"/><path fill-rule="evenodd" d="M6 10c0-.552.448-1 1-1h4c.552 0 1 .448 1 1v3c0 .552-.448 1-1 1h-4c-.552 0-1-.448-1-1v-3Zm1.5.5v2h3v-2h-3Z"/><path d="M17.5 12.75c0-.414-.336-.75-.75-.75s-.75.336-.75.75v.5c0 .966-.784 1.75-1.75 1.75h-.94l.22-.22c.293-.293.293-.767 0-1.06-.293-.293-.767-.293-1.06 0l-1.5 1.5c-.293.293-.293.767 0 1.06l1.5 1.5c.293.293.767.293 1.06 0 .293-.293.293-.767 0-1.06l-.22-.22h.94c1.795 0 3.25-1.455 3.25-3.25v-.5Z"/></svg>
